picto/park-rail-framed.svg

<svg class="color-immutable" width="30" height="30" viewBox="0 0 30 30" fill="none" xmlns="http://www.w3.org/2000/svg"><path d="M30 0H0V30H30V0Z" fill="#2D327D"/><path d="M25.5 3C26.325 3 27 3.675 27 4.5V25.5C27 26.325 26.325 27 25.5 27H4.5C3.675 27 3 26.325 3 25.5V4.5C3 3.675 3.675 3 4.5 3H25.5ZM25.5 2.625H4.5C3.46613 2.625 2.625 3.46613 2.625 4.5V25.5C2.625 26.5339 3.46613 27.375 4.5 27.375H25.5C26.5339 27.375 27.375 26.5339 27.375 25.5V4.5C27.375 3.46613 26.5339 2.625 25.5 2.625Z" fill="white"/><path d="M6 10.5079H11.4449C12.3615 10.5079 13.0829 10.5648 13.6089 10.6786C14.1349 10.7925 14.6102 10.9939 15.0347 11.2831C16.2098 12.0706 16.7974 13.258 16.7974 14.8453C16.7974 16.2542 16.3113 17.3616 15.3393 18.1675C14.927 18.5122 14.4564 18.7597 13.9274 18.9104C13.3981 19.0612 12.7461 19.1365 11.9709 19.1365H8.94397V24H6V10.5079ZM8.9439 12.9996V16.8202H11.574C12.3553 16.8202 12.9181 16.6817 13.2629 16.4049C13.6874 16.0604 13.8996 15.5528 13.8996 14.8822C13.8996 14.2054 13.6535 13.7009 13.1613 13.3687C12.8044 13.1227 12.2231 12.9995 11.4171 12.9995H8.9439V12.9996Z" fill="white"/><path d="M6.21382 6H7.12132C7.27409 6 7.39432 6.00945 7.482 6.02842C7.56967 6.0474 7.64887 6.081 7.7196 6.12915C7.91542 6.2604 8.01337 6.45832 8.01337 6.72285C8.01337 6.95767 7.93237 7.14225 7.77037 7.27658C7.70167 7.33403 7.62322 7.37527 7.53502 7.4004C7.44682 7.42552 7.33815 7.43805 7.20892 7.43805H6.7044V8.24865H6.21375V6H6.21382ZM6.70447 6.41528V7.05202H7.14285C7.27305 7.05202 7.36687 7.02892 7.42432 6.9828C7.49504 6.92535 7.53044 6.84075 7.53044 6.729C7.53044 6.6162 7.48942 6.53213 7.40737 6.47678C7.3479 6.43575 7.251 6.41528 7.11667 6.41528H6.70447Z" fill="white"/><path d="M8.27173 7.29818V6.99668H8.89618V6.37065H9.19768V6.99668H9.8237V7.29818H9.19768V7.92263H8.89618V7.29818H8.27173Z" fill="white"/><path d="M10.1975 6H11.2865C11.5018 6 11.6669 6.03382 11.7818 6.10155C11.8771 6.1569 11.95 6.23077 12.0002 6.32302C12.0505 6.41527 12.0756 6.51938 12.0756 6.63525C12.0756 6.7665 12.0441 6.8808 11.981 6.97822C11.9179 7.07565 11.83 7.1454 11.7172 7.1874C11.8167 7.212 11.8946 7.26735 11.951 7.35352C11.9869 7.4079 12.011 7.46475 12.0233 7.52422C12.0356 7.5837 12.0515 7.71953 12.071 7.93185C12.0853 8.0877 12.1074 8.1846 12.1372 8.22255L12.1587 8.24873H11.6465C11.6291 8.21693 11.6165 8.17642 11.6089 8.12722C11.6012 8.07803 11.5912 7.96417 11.5789 7.78575C11.5666 7.62682 11.5279 7.51688 11.4628 7.45583C11.3977 7.39478 11.2867 7.36433 11.1298 7.36433H10.6883V8.24873H10.1977V6H10.1975ZM10.6882 6.38603V7.00432H11.1573C11.308 7.00432 11.4142 6.9828 11.4757 6.93975C11.5536 6.88537 11.5926 6.8034 11.5926 6.69368C11.5926 6.58703 11.5593 6.5091 11.4926 6.4599C11.4259 6.4107 11.3209 6.3861 11.1773 6.3861H10.6882V6.38603Z" fill="white"/><path d="M13.9565 8.24865H13.5012C13.4817 8.18303 13.472 8.12715 13.472 8.08103C13.3326 8.22353 13.1526 8.29485 12.9321 8.29485C12.7599 8.29485 12.6255 8.25488 12.5292 8.17485C12.4184 8.0826 12.363 7.9539 12.363 7.78883C12.363 7.5786 12.4579 7.43303 12.6476 7.35203C12.7245 7.31918 12.866 7.28895 13.0721 7.26128C13.2495 7.23773 13.3599 7.21485 13.4035 7.1928C13.4471 7.17075 13.4689 7.12643 13.4689 7.05975C13.4689 6.91313 13.3715 6.83978 13.1767 6.83978C13.0731 6.83978 12.9975 6.85823 12.9498 6.89513C12.9021 6.93203 12.8706 6.99615 12.8553 7.08735H12.4338C12.4472 6.90075 12.5174 6.75998 12.6446 6.66518C12.7718 6.57038 12.9527 6.5229 13.1875 6.5229C13.4469 6.5229 13.6387 6.5757 13.7628 6.6813C13.8202 6.7305 13.8584 6.7833 13.8774 6.8397C13.8963 6.8961 13.9058 6.98528 13.9058 7.1073C13.9058 7.13295 13.9042 7.24575 13.9011 7.4457C13.8991 7.64768 13.8981 7.76355 13.8981 7.79333C13.8981 7.91535 13.9017 8.00483 13.9089 8.06175C13.9161 8.11868 13.9319 8.181 13.9565 8.24865ZM13.4658 7.43813C13.4084 7.47405 13.3038 7.50218 13.152 7.52273C13.0454 7.53915 12.9685 7.56015 12.9213 7.5858C12.8547 7.62173 12.8214 7.6827 12.8214 7.7688C12.8214 7.83855 12.8434 7.89285 12.8875 7.93185C12.9316 7.97085 12.9931 7.99028 13.0721 7.99028C13.2033 7.99028 13.3095 7.94415 13.3905 7.85183C13.4192 7.82003 13.4389 7.78695 13.4497 7.7526C13.4605 7.71825 13.4658 7.67288 13.4658 7.61648V7.43813Z" fill="white"/><path d="M14.7025 6V6.40147H14.2565V6H14.7025ZM14.7025 6.57217V8.24873H14.2565V6.57217H14.7025Z" fill="white"/><path d="M15.5146 6V8.24865H15.0686V6H15.5146Z" fill="white"/></svg>

<svg class="color-immutable" width="30" height="30" viewBox="0 0 30 30" fill="none" xmlns="http://www.w3.org/2000/svg"><g clip-path="url(#a)"><path d="M30 0H0v30h30V0Z" fill="#2D327D"/><path d="M25.5 3c.825 0 1.5.675 1.5 1.5v21c0 .825-.675 1.5-1.5 1.5h-21c-.825 0-1.5-.675-1.5-1.5v-21C3 3.675 3.675 3 4.5 3h21Zm0-.375h-21A1.877 1.877 0 0 0 2.625 4.5v21c0 1.034.841 1.875 1.875 1.875h21a1.877 1.877 0 0 0 1.875-1.875v-21A1.877 1.877 0 0 0 25.5 2.625Z" fill="#fff"/><path d="M6 10.508h5.445c.916 0 1.638.057 2.164.17a4.014 4.014 0 0 1 1.426.605c1.175.788 1.762 1.975 1.762 3.562 0 1.41-.486 2.517-1.458 3.322a3.796 3.796 0 0 1-1.412.743c-.529.151-1.18.227-1.956.227H8.944V24H6V10.508ZM8.944 13v3.82h2.63c.781 0 1.344-.138 1.689-.415.424-.345.637-.852.637-1.523 0-.677-.247-1.181-.739-1.513-.357-.246-.938-.37-1.744-.37H8.944ZM6.214 6h.907c.153 0 .273.01.361.028a.67.67 0 0 1 .238.101c.195.131.293.33.293.594a.68.68 0 0 1-.243.554.633.633 0 0 1-.235.123 1.208 1.208 0 0 1-.326.038h-.505v.81h-.49V6Zm.49.415v.637h.439c.13 0 .224-.023.281-.07.071-.057.106-.141.106-.253 0-.113-.04-.197-.123-.252-.06-.041-.156-.062-.29-.062h-.413ZM8.272 7.298v-.301h.624V6.37h.302v.626h.626v.301h-.626v.625h-.302v-.625h-.624ZM10.197 6h1.09c.215 0 .38.034.495.102.095.055.168.129.218.221.05.092.076.196.076.312a.617.617 0 0 1-.095.343.522.522 0 0 1-.264.21c.1.024.178.08.234.166.036.054.06.11.072.17.013.06.029.196.048.408.014.156.036.253.066.29l.022.027h-.513a.372.372 0 0 1-.037-.122 5.359 5.359 0 0 1-.03-.341c-.012-.16-.051-.27-.116-.33-.065-.061-.176-.092-.333-.092h-.442v.885h-.49V6Zm.491.386v.618h.47c.15 0 .256-.021.318-.064.078-.055.117-.137.117-.246 0-.107-.034-.185-.1-.234-.067-.05-.172-.074-.316-.074h-.489ZM13.957 8.249H13.5a.605.605 0 0 1-.029-.168.722.722 0 0 1-.54.214c-.172 0-.306-.04-.403-.12a.475.475 0 0 1-.166-.386c0-.21.095-.356.285-.437.077-.033.218-.063.424-.09a1.37 1.37 0 0 0 .332-.07c.043-.021.065-.066.065-.132 0-.147-.098-.22-.292-.22-.104 0-.18.018-.227.055-.048.037-.08.101-.095.192h-.421a.545.545 0 0 1 .21-.422c.128-.095.309-.142.543-.142.26 0 .452.053.576.158.057.05.095.102.114.159a.914.914 0 0 1 .029.267l-.005.339-.003.347c0 .122.004.212.01.269.008.057.024.119.049.187Zm-.491-.81a.865.865 0 0 1-.314.084.758.758 0 0 0-.23.063c-.067.036-.1.097-.1.183 0 .07.021.124.066.163a.27.27 0 0 0 .184.058.403.403 0 0 0 .319-.138.27.27 0 0 0 .059-.1.467.467 0 0 0 .016-.136v-.178ZM14.703 6v.401h-.446V6h.446Zm0 .572V8.25h-.446V6.572h.446ZM15.515 6v2.249h-.446V6h.446Z" fill="#fff"/></g><defs><clipPath id="a"><path fill="#fff" d="M0 0h30v30H0z"/></clipPath></defs></svg>
